packages/astro-components-stencil/src/icons/camera-enhance.svg

<svg xmlns="http://www.w3.org/2000/svg" viewBox="0 0 24 24"><g xmlns="http://www.w3.org/2000/svg" id="camera-enhance" fill-rule="nonzero">
            <path d="M20 5h-3.17l-1.24-1.35A1.99 1.99 0 0014.12 3H9.88c-.56 0-1.1.24-1.48.65L7.17 5H4c-1.1 0-2 .9-2 2v12c0 1.1.9 2 2 2h16c1.1 0 2-.9 2-2V7c0-1.1-.9-2-2-2zm-8 13c-2.76 0-5-2.24-5-5s2.24-5 5-5 5 2.24 5 5-2.24 5-5 5zm0-9l-1.25 2.75L8 13l2.75 1.25L12 17l1.25-2.75L16 13l-2.75-1.25L12 9z"/>
        </g></svg>

<svg width="24" height="24" viewBox="0 0 24 24" fill="none" xmlns="http://www.w3.org/2000/svg">
<path fill-rule="evenodd" clip-rule="evenodd" d="M20 5H16.83L15.59 3.65C15.22 3.24 14.68 3 14.12 3H9.88C9.32 3 8.78 3.24 8.4 3.65L7.17 5H4C2.9 5 2 5.9 2 7V19C2 20.1 2.9 21 4 21H20C21.1 21 22 20.1 22 19V7C22 5.9 21.1 5 20 5ZM12 18C9.24 18 7 15.76 7 13C7 10.24 9.24 8 12 8C14.76 8 17 10.24 17 13C17 15.76 14.76 18 12 18ZM10.75 11.75L12 9L13.25 11.75L16 13L13.25 14.25L12 17L10.75 14.25L8 13L10.75 11.75Z" fill="black"/>
</svg>
